Origami/24x24/apps/Ri-li.svg

<svg width="24" height="24" version="1" xmlns="http://www.w3.org/2000/svg">
 <g transform="scale(.5)">
  <rect transform="matrix(0,-1,-1,0,0,0)" x="-44" y="-44" width="40" height="40" rx="2" ry="2" style="fill:#52845f"/>
  <path d="m6 4c-1.108 0-2 0.892-2 2v1c0-1.108 0.892-2 2-2h36c1.108 0 2 0.892 2 2v-1c0-1.108-0.892-2-2-2z" style="fill:#ffffff;opacity:.2"/>
  <path d="m6 45c-1.108 0-2-0.892-2-2v-1c0 1.108 0.892 2 2 2h36c1.108 0 2-0.892 2-2v1c0 1.108-0.892 2-2 2z" style="opacity:.2"/>
  <path d="m12.427734 17c-1.300881 0-2.427734 1.105151-2.427734 2.423828v9.152344c0 1.318677 1.126853 2.423828 2.427734 2.423828h11.572266v14h4v-16a2.0002 2.0002 0 0 0 -2 -2h-12v-6h20v24h4v-25.576172c0-1.318677-1.126853-2.423828-2.427734-2.423828z" style="opacity:.2"/>
  <path d="m12.427734 16c-1.300881 0-2.427734 1.105151-2.427734 2.423828v9.152344c0 1.318677 1.126853 2.423828 2.427734 2.423828h11.572266v14h4v-16a2.0002 2.0002 0 0 0 -2 -2h-12v-6h20v24h4v-25.576172c0-1.318677-1.126853-2.423828-2.427734-2.423828z" style="fill:#fbc295"/>
  <path d="M 12.427734,16 C 11.126853,16 10,17.105151 10,18.423828 v 1 C 10,18.105151 11.126853,17 12.427734,17 H 35.572266 C 36.873147,17 38,18.105151 38,19.423828 v -1 C 38,17.105151 36.873147,16 35.572266,16 Z M 14,26 v 1 h 12 a 2.0002,2.0002 0 0 1 2,2 v -1 a 2.0002,2.0002 0 0 0 -2,-2 z" style="fill:#ffffff;opacity:.2"/>
 </g>
</svg>

<svg xmlns="http://www.w3.org/2000/svg" width="24" height="24" version="1">
 <g transform="scale(0.5)">
  <rect style="fill:#52845f" width="40" height="40" x="-44" y="-44" rx="2" ry="2" transform="matrix(0,-1,-1,0,0,0)"/>
  <path style="opacity:0.2;fill:#ffffff" d="M 6,4 C 4.892,4 4,4.892 4,6 V 7 C 4,5.892 4.892,5 6,5 h 36 c 1.108,0 2,0.892 2,2 V 6 C 44,4.892 43.108,4 42,4 Z"/>
  <path style="opacity:0.2" d="M 6,45 C 4.892,45 4,44.108 4,43 v -1 c 0,1.108 0.892,2 2,2 h 36 c 1.108,0 2,-0.892 2,-2 v 1 c 0,1.108 -0.892,2 -2,2 z"/>
  <path style="opacity:0.2" d="M 12.427734,17 C 11.126853,17 10,18.105151 10,19.423828 v 9.152344 C 10,29.894849 11.126853,31 12.427734,31 H 24 v 14 h 4 V 29 A 2.0002,2.0002 0 0 0 26,27 H 14 V 21 H 34 V 23.427734 28.576172 45 h 4 V 28.576172 23.427734 19.423828 C 38,18.105151 36.873147,17 35.572266,17 Z"/>
  <path style="fill:#fbc295" d="M 12.427734,16 C 11.126853,16 10,17.105151 10,18.423828 v 9.152344 C 10,28.894849 11.126853,30 12.427734,30 H 24 v 14 h 4 V 28 A 2.0002,2.0002 0 0 0 26,26 H 14 V 20 H 34 V 22.427734 27.576172 44 h 4 V 27.576172 22.427734 18.423828 C 38,17.105151 36.873147,16 35.572266,16 Z"/>
  <path style="opacity:0.2;fill:#ffffff" d="M 12.427734,16 C 11.126853,16 10,17.105151 10,18.423828 v 1 C 10,18.105151 11.126853,17 12.427734,17 H 35.572266 C 36.873147,17 38,18.105151 38,19.423828 v -1 C 38,17.105151 36.873147,16 35.572266,16 Z M 14,26 v 1 h 12 a 2.0002,2.0002 0 0 1 2,2 v -1 a 2.0002,2.0002 0 0 0 -2,-2 z"/>
 </g>
</svg>
